public/projects-light.svg

<svg xmlns="http://www.w3.org/2000/svg" xmlns:vectornator="http://vectornator.io" xml:space="preserve" stroke-miterlimit="10" style="fill-rule:nonzero;clip-rule:evenodd;stroke-linecap:round;stroke-linejoin:round" viewBox="0 0 1024 1024"><clipPath id="a"><path d="M0 0h1024v1024H0z"/></clipPath><g vectornator:layerName="Layer 1"><g vectornator:layerName="Group 1" clip-path="url(#a)"><path vectornator:layerName="Curve 1" d="m512 0-65.836 242.585c21.108-5.14 43.146-7.938 65.836-7.938 22.69 0 44.728 2.798 65.836 7.938L512 0ZM149.954 149.954l124.992 218.018a278.795 278.795 0 0 1 93.026-93.026L149.954 149.954Zm724.092 0L656.028 274.946a278.795 278.795 0 0 1 93.026 93.026l124.992-218.018Zm-631.461 296.21L0 512l242.585 65.836c-5.14-21.108-7.938-43.146-7.938-65.836 0-22.69 2.798-44.728 7.938-65.836Zm538.83 0c5.14 21.108 7.938 43.146 7.938 65.836 0 22.69-2.798 44.728-7.938 65.836L1024 512l-242.585-65.836ZM274.946 656.028 149.954 874.046l218.018-124.992a278.795 278.795 0 0 1-93.026-93.026Zm474.108 0a278.795 278.795 0 0 1-93.026 93.026l218.018 124.992-124.992-218.018Zm-302.89 125.387L512 1024l65.836-242.585c-21.108 5.14-43.146 7.938-65.836 7.938-22.69 0-44.728-2.798-65.836-7.938Z"/><path vectornator:layerName="Oval 1" d="M272.465 512c0-132.291 107.244-239.535 239.535-239.535S751.535 379.709 751.535 512 644.291 751.535 512 751.535 272.465 644.291 272.465 512Z"/></g></g></svg>

<?xml version="1.0" encoding="UTF-8" standalone="no"?>
<!DOCTYPE svg PUBLIC "-//W3C//DTD SVG 1.1//EN" "http://www.w3.org/Graphics/SVG/1.1/DTD/svg11.dtd">
<!-- Created with Vectornator (http://vectornator.io/) -->
<svg height="100%" stroke-miterlimit="10" style="fill-rule:nonzero;clip-rule:evenodd;stroke-linecap:round;stroke-linejoin:round;" version="1.1" viewBox="0 0 1024 1024" width="100%" xml:space="preserve" xmlns="http://www.w3.org/2000/svg" xmlns:vectornator="http://vectornator.io" xmlns:xlink="http://www.w3.org/1999/xlink">
<defs/>
<clipPath id="ArtboardFrame">
<rect height="1024" width="1024" x="0" y="0"/>
</clipPath>
<g clip-path="url(#ArtboardFrame)" id="Layer-1" vectornator:layerName="Layer 1">
<g opacity="1" vectornator:layerName="Group 1">
<path d="M512 8.88178e-16L446.164 242.585C467.272 237.445 489.31 234.647 512 234.647C534.69 234.647 556.728 237.445 577.836 242.585L512 8.88178e-16ZM149.954 149.954L274.946 367.972C298.054 330.022 330.022 298.054 367.972 274.946L149.954 149.954ZM874.046 149.954L656.028 274.946C693.978 298.054 725.946 330.022 749.054 367.972L874.046 149.954ZM242.585 446.164L-1.13687e-13 512L242.585 577.836C237.445 556.728 234.647 534.69 234.647 512C234.647 489.31 237.445 467.272 242.585 446.164ZM781.415 446.164C786.555 467.272 789.353 489.31 789.353 512C789.353 534.69 786.555 556.728 781.415 577.836L1024 512L781.415 446.164ZM274.946 656.028L149.954 874.046L367.972 749.054C330.022 725.946 298.054 693.978 274.946 656.028ZM749.054 656.028C725.946 693.978 693.978 725.946 656.028 749.054L874.046 874.046L749.054 656.028ZM446.164 781.415L512 1024L577.836 781.415C556.728 786.555 534.69 789.353 512 789.353C489.31 789.353 467.272 786.555 446.164 781.415Z" fill="#000000" fill-rule="nonzero" opacity="1" stroke="none" vectornator:layerName="Curve 1"/>
<path d="M272.465 512C272.465 379.709 379.709 272.465 512 272.465C644.291 272.465 751.535 379.709 751.535 512C751.535 644.291 644.291 751.535 512 751.535C379.709 751.535 272.465 644.291 272.465 512Z" fill="#000000" fill-rule="nonzero" opacity="1" stroke="none" vectornator:layerName="Oval 1"/>
</g>
</g>
</svg>
